austria/municipalities/70351.svg

<?xml version="1.0" encoding="UTF-8"?>
<!DOCTYPE svg PUBLIC "-//W3C//DTD SVG 1.1//EN" "http://www.w3.org/Graphics/SVG/1.1/DTD/svg11.dtd">
<svg xmlns="http://www.w3.org/2000/svg" version="1.1" width="166px" height="192px" style="shape-rendering:geometricPrecision; text-rendering:geometricPrecision; image-rendering:optimizeQuality; fill-rule:evenodd; clip-rule:evenodd" xmlns:xlink="http://www.w3.org/1999/xlink">
<g><path style="opacity:1" fill="#111010" d="M -0.5,-0.5 C 54.8333,-0.5 110.167,-0.5 165.5,-0.5C 165.5,39.1667 165.5,78.8333 165.5,118.5C 157.612,158.721 133.612,183.054 93.5,191.5C 86.1667,191.5 78.8333,191.5 71.5,191.5C 30.4674,182.802 6.46741,157.802 -0.5,116.5C -0.5,77.5 -0.5,38.5 -0.5,-0.5 Z"/></g>
<g><path style="opacity:1" fill="#fdfdfd" d="M 3.5,3.5 C 56.1667,3.5 108.833,3.5 161.5,3.5C 161.667,41.8348 161.5,80.1681 161,118.5C 155.521,150.972 137.355,172.805 106.5,184C 63.1317,194.062 30.965,179.562 10,140.5C 6.60018,132.5 4.60018,124.167 4,115.5C 3.50001,78.1682 3.33335,40.8348 3.5,3.5 Z"/></g>
<g><path style="opacity:1" fill="#696663" d="M 119.5,50.5 C 118.432,51.4345 117.099,51.7678 115.5,51.5C 115.784,53.4147 115.451,55.0813 114.5,56.5C 114.5,54.5 114.5,52.5 114.5,50.5C 116.167,50.5 117.833,50.5 119.5,50.5 Z"/></g>
<g><path style="opacity:1" fill="#1b1412" d="M 119.5,50.5 C 117.833,50.5 116.167,50.5 114.5,50.5C 114.5,52.5 114.5,54.5 114.5,56.5C 113.756,60.1185 113.423,63.7852 113.5,67.5C 111.61,67.7035 110.11,67.0368 109,65.5C 106.538,68.9324 106.038,72.5991 107.5,76.5C 105.813,77.568 104.146,77.4014 102.5,76C 101.213,74.5905 100.046,73.0905 99,71.5C 98.1628,75.2946 98.4961,78.9613 100,82.5C 105.593,88.0964 111.76,92.9297 118.5,97C 122.257,100.086 125.257,103.752 127.5,108C 136.164,109 139.664,105.166 138,96.5C 135.05,91.8815 131.716,87.5482 128,83.5C 125.39,76.5959 126.39,70.2626 131,64.5C 131.758,62.2305 131.591,60.0639 130.5,58C 135.071,57.5609 137.571,59.7276 138,64.5C 140.405,63.7256 142.905,63.2256 145.5,63C 150.054,60.3966 150.721,56.8966 147.5,52.5C 147.833,52.1667 148.167,51.8333 148.5,51.5C 154.415,54.3545 155.915,58.6878 153,64.5C 149.195,67.3194 145.029,69.4861 140.5,71C 135.945,73.9131 134.779,77.7464 137,82.5C 139.396,76.2231 143.896,73.3897 150.5,74C 154.124,76.1613 155.291,79.328 154,83.5C 153.333,84.1667 152.667,84.8333 152,85.5C 151.993,79.7088 149.327,78.0421 144,80.5C 143.296,82.2784 142.796,84.1118 142.5,86C 144.672,92.8468 144.839,99.6801 143,106.5C 138.123,112.057 131.956,114.057 124.5,112.5C 122.171,119.154 119.837,125.821 117.5,132.5C 118.894,139.07 122.727,143.737 129,146.5C 129.667,148.167 129.667,149.833 129,151.5C 123.096,156.313 118.929,162.313 116.5,169.5C 114.647,170.76 112.814,170.76 111,169.5C 109.687,177.312 105.187,181.979 97.5,183.5C 97.4386,181.408 96.4386,179.908 94.5,179C 96.1274,176.246 97.6274,173.412 99,170.5C 102.775,166.939 106.775,163.605 111,160.5C 113.712,157.064 115.879,153.397 117.5,149.5C 112.757,147.362 108.757,148.195 105.5,152C 104.167,152.667 102.833,152.667 101.5,152C 104.404,148.021 103.57,144.855 99,142.5C 96.9113,134.394 98.4113,126.894 103.5,120C 96.7551,121.02 90.0884,122.686 83.5,125C 79.7844,128.542 79.6177,132.375 83,136.5C 83.6667,138.5 83.6667,140.5 83,142.5C 75.836,146.006 69.6693,150.839 64.5,157C 62.9532,157.333 61.6199,156.833 60.5,155.5C 57.5171,162.659 52.1838,165.659 44.5,164.5C 44.5,163.5 44.5,162.5 44.5,161.5C 43.325,161.719 42.325,161.386 41.5,160.5C 45.7174,152.551 52.3841,148.385 61.5,148C 66.7195,146.143 69.5528,142.643 70,137.5C 68,134.833 66,132.167 64,129.5C 62.0257,129.374 59.859,129.208 57.5,129C 53.527,125.699 54.3603,123.865 60,123.5C 60.5377,118.912 62.7044,115.412 66.5,113C 73.8333,113 81.1667,113 88.5,113C 91.4456,112.194 94.1123,110.861 96.5,109C 85.7741,106.315 77.1074,100.648 70.5,92C 62.1734,89.3388 54.1734,85.8388 46.5,81.5C 42.3725,85.2852 39.0391,89.6185 36.5,94.5C 35.3112,95.4287 33.9778,95.762 32.5,95.5C 33.9212,99.5884 33.7545,103.588 32,107.5C 30.1192,110.754 27.9525,111.088 25.5,108.5C 23.5378,109.854 22.5378,109.187 22.5,106.5C 22.9373,100.532 24.4373,94.8658 27,89.5C 31.8333,84.6667 36.6667,79.8333 41.5,75C 43.3659,74.0153 45.3659,73.5153 47.5,73.5C 50.5028,74.138 53.5028,74.3047 56.5,74C 49.709,63.1252 42.3757,62.7919 34.5,73C 33.1011,73.5946 31.7678,73.4279 30.5,72.5C 29.1817,80.4894 24.515,84.4894 16.5,84.5C 16.5,83.5 16.5,82.5 16.5,81.5C 15.448,81.6495 14.448,81.4828 13.5,81C 17.1201,75.7114 21.1201,70.7114 25.5,66C 32.2659,62.7443 39.2659,60.0776 46.5,58C 48.9712,57.2937 51.3046,57.627 53.5,59C 57.9095,62.6208 62.4095,66.1208 67,69.5C 72.9007,62.6013 79.734,56.7679 87.5,52C 91.4272,48.6428 93.5939,44.4762 94,39.5C 91.5484,42.8207 88.3818,45.3207 84.5,47C 83.2062,49.087 82.0395,51.2537 81,53.5C 79.8289,54.8932 78.3289,55.7265 76.5,56C 74.726,60.1469 71.726,62.1469 67.5,62C 64.2738,58.0333 64.9404,56.5333 69.5,57.5C 70.91,57.1322 71.91,56.2989 72.5,55C 70.6431,53.8176 69.6431,52.151 69.5,50C 71.1018,43.4327 72.6018,36.9327 74,30.5C 62.9023,24.7012 51.7357,19.0345 40.5,13.5C 45.5483,12.7354 50.5483,13.2354 55.5,15C 63.1106,17.942 70.6106,21.1087 78,24.5C 78.7666,20.4425 78.5999,16.4425 77.5,12.5C 81.549,11.6542 84.3824,13.3209 86,17.5C 88.046,15.6239 89.8793,13.6239 91.5,11.5C 93.756,12.4209 94.756,14.0876 94.5,16.5C 98.8131,16.3777 102.98,17.0444 107,18.5C 115.769,16.2047 116.603,17.7047 109.5,23C 112.997,24.4107 115.664,26.744 117.5,30C 119.087,30.8624 120.754,31.5291 122.5,32C 120.918,34.0854 118.918,35.5854 116.5,36.5C 117.244,39.443 117.744,42.443 118,45.5C 118.273,47.3289 119.107,48.8289 120.5,50C 120.272,50.3988 119.938,50.5654 119.5,50.5 Z"/></g>
<g><path style="opacity:1" fill="#c82f22" d="M 151.5,56.5 C 154.334,59.8831 153.667,62.7164 149.5,65C 145.5,67 141.5,69 137.5,71C 133.539,75.7978 133.539,80.6311 137.5,85.5C 138.948,83.3333 140.115,81 141,78.5C 143.763,76.0298 146.93,75.1965 150.5,76C 153.199,78.5431 153.199,79.2097 150.5,78C 147.044,76.877 144.21,77.7104 142,80.5C 141.23,86.9287 141.73,93.262 143.5,99.5C 141.85,108.489 136.517,112.323 127.5,111C 126.304,110.346 126.304,109.846 127.5,109.5C 135.349,111.236 139.683,108.069 140.5,100C 138.688,93.5022 135.188,88.0022 130,83.5C 128.743,81.4874 127.909,79.3207 127.5,77C 129.554,71.0702 131.721,65.2369 134,59.5C 135.741,61.5412 135.908,63.7079 134.5,66C 139.681,66.1147 144.681,65.1147 149.5,63C 151.016,61.103 151.683,58.9363 151.5,56.5 Z"/></g>
<g><path style="opacity:1" fill="#d03023" d="M 46.5,59.5 C 48.5273,59.3379 50.5273,59.5045 52.5,60C 56.6886,63.6896 61.022,67.1896 65.5,70.5C 65.9202,72.326 65.9202,74.326 65.5,76.5C 63.8008,76.6602 62.1341,76.4935 60.5,76C 57.5,72.3333 54.5,68.6667 51.5,65C 43.3503,62.3872 37.1837,64.8872 33,72.5C 31.8668,70.7888 30.3668,70.2888 28.5,71C 28.0799,75.5055 26.0799,79.1722 22.5,82C 21.1667,82.6667 19.8333,82.6667 18.5,82C 18.9574,81.586 19.2907,81.086 19.5,80.5C 18.1886,79.7425 17.6886,78.7425 18,77.5C 21.1311,73.3672 24.6311,69.5338 28.5,66C 34.7128,64.0986 40.7128,61.932 46.5,59.5 Z"/></g>
<g><path style="opacity:1" fill="#a82c1f" d="M 80.5,49.5 C 80.3646,52.3721 79.0312,53.8721 76.5,54C 77.7332,52.3333 79.0665,50.8333 80.5,49.5 Z"/></g>
<g><path style="opacity:1" fill="#cd3022" d="M 57.5,19.5 C 64.633,20.4453 71.2997,22.6119 77.5,26C 77.0019,27.1581 76.1685,27.9915 75,28.5C 68.8862,25.8609 63.0529,22.8609 57.5,19.5 Z"/></g>
<g><path style="opacity:1" fill="#c22f21" d="M 57.5,19.5 C 53.8023,18.818 50.469,17.318 47.5,15C 50.0687,15.5901 52.7354,16.2568 55.5,17C 56.3805,17.7083 57.0472,18.5416 57.5,19.5 Z"/></g>
<g><path style="opacity:1" fill="#d43023" d="M 80.5,49.5 C 80.5852,48.0047 79.9185,47.0047 78.5,46.5C 76.457,47.5794 75.1237,49.246 74.5,51.5C 73.675,52.3857 72.675,52.719 71.5,52.5C 72.1323,43.7695 74.2989,35.4362 78,27.5C 82,22.1667 86.6667,17.5 92,13.5C 92.2121,16.3315 92.3787,18.9982 92.5,21.5C 93.6919,19.3175 95.5253,17.9842 98,17.5C 101.523,19.6711 105.357,20.8377 109.5,21C 108.643,21.6891 107.977,22.5224 107.5,23.5C 111.644,26.4763 115.644,29.643 119.5,33C 116.743,33.782 114.243,33.282 112,31.5C 113.138,34.055 114.471,36.7216 116,39.5C 116.256,42.557 116.756,45.557 117.5,48.5C 116.998,49.521 116.332,49.6877 115.5,49C 114.228,47.6932 113.228,46.1932 112.5,44.5C 112.167,45 111.833,45.5 111.5,46C 114.046,52.1995 113.712,58.3661 110.5,64.5C 109.35,62.2372 108.35,59.9038 107.5,57.5C 106.554,59.0755 106.554,60.7422 107.5,62.5C 106.163,66.5052 104.83,70.5052 103.5,74.5C 102.044,71.7139 101.044,68.7139 100.5,65.5C 94.8786,72.8058 95.2119,79.8058 101.5,86.5C 107.076,91.5771 113.076,96.0771 119.5,100C 122.981,102.766 124.481,106.266 124,110.5C 120.672,117.654 117.838,124.987 115.5,132.5C 116.283,138.903 119.616,143.403 125.5,146C 126.804,146.804 127.471,147.971 127.5,149.5C 124.556,153.618 121.389,157.618 118,161.5C 116.725,163.717 115.725,166.051 115,168.5C 113.278,168.962 111.445,169.128 109.5,169C 109.034,174.969 106.034,179.136 100.5,181.5C 99.2888,180.726 99.2888,179.893 100.5,179C 99.376,178.751 98.376,178.251 97.5,177.5C 98.6667,175.167 99.8333,172.833 101,170.5C 109.107,165.562 115.274,158.896 119.5,150.5C 119.392,149.558 119.059,148.725 118.5,148C 114.527,146.501 110.527,146.334 106.5,147.5C 106,148.5 105.5,149.5 105,150.5C 104.667,148.833 104.333,147.167 104,145.5C 99.7918,141.775 98.4584,137.109 100,131.5C 102.312,126.379 104.478,121.212 106.5,116C 106.205,113.077 104.871,110.743 102.5,109C 91.7984,106.4 82.2984,101.566 74,94.5C 72.6319,93.0069 72.4652,91.5069 73.5,90C 69.7502,89.7401 66.0836,89.0734 62.5,88C 57.6572,84.8286 52.4905,82.3286 47,80.5C 45.2894,80.4393 43.956,81.1059 43,82.5C 39.5562,87.2774 35.5562,91.2774 31,94.5C 30.9091,96.7963 31.0757,99.1296 31.5,101.5C 31.844,104.472 30.844,106.806 28.5,108.5C 27.5751,106.045 26.2418,104.878 24.5,105C 25.1476,99.5746 26.6476,94.4079 29,89.5C 33.7381,84.8839 38.5715,80.3839 43.5,76C 44.6086,75.3623 45.7753,74.8623 47,74.5C 53.4557,76.6303 59.9557,77.6303 66.5,77.5C 70.1209,67.3743 76.7876,59.8743 86.5,55C 91.7667,50.6267 95.1001,45.1267 96.5,38.5C 96.3839,35.6011 95.2173,33.2677 93,31.5C 92.5,31.6667 92,31.8333 91.5,32C 93.1869,33.913 93.6869,36.0797 93,38.5C 90.5364,41.7983 87.3697,44.1316 83.5,45.5C 82.4793,46.9014 81.4793,48.2347 80.5,49.5 Z"/></g>
<g><path style="opacity:1" fill="#190b06" d="M 79.5,27.5 C 84.3276,27.3852 85.6609,29.5519 83.5,34C 78.5705,34.427 77.2372,32.2604 79.5,27.5 Z"/></g>
<g><path style="opacity:1" fill="#bb2e21" d="M 79.5,13.5 C 84.7616,15.606 85.2616,18.2726 81,21.5C 79.9207,18.9373 79.4207,16.2706 79.5,13.5 Z"/></g>
<g><path style="opacity:1" fill="#d13023" d="M 98.5,109.5 C 102.745,110.006 104.579,112.34 104,116.5C 95.9973,118.945 88.164,121.778 80.5,125C 79.2815,126.438 78.6148,128.105 78.5,130C 79.8726,133.545 81.0393,137.045 82,140.5C 75.337,144.26 69.5036,149.093 64.5,155C 62.9652,154.339 61.2985,154.006 59.5,154C 55.5663,162.858 50.5663,164.525 44.5,159C 46.2272,155.607 48.8938,153.274 52.5,152C 60.6542,151.507 67.1542,148.007 72,141.5C 71.8261,137.595 70.1595,134.261 67,131.5C 65.9914,129.975 65.4914,128.308 65.5,126.5C 62.8589,127.263 60.1922,127.43 57.5,127C 60.9526,125.272 62.7859,122.438 63,118.5C 65.0096,115.44 67.8429,113.774 71.5,113.5C 77.8019,114.586 84.1352,114.753 90.5,114C 93.6844,113.246 96.3511,111.746 98.5,109.5 Z"/></g>
<g><path style="opacity:1" fill="#fdfdfd" d="M -0.5,116.5 C 6.46741,157.802 30.4674,182.802 71.5,191.5C 47.5,191.5 23.5,191.5 -0.5,191.5C -0.5,166.5 -0.5,141.5 -0.5,116.5 Z"/></g>
<g><path style="opacity:1" fill="#fdfdfd" d="M 165.5,118.5 C 165.5,142.833 165.5,167.167 165.5,191.5C 141.5,191.5 117.5,191.5 93.5,191.5C 133.612,183.054 157.612,158.721 165.5,118.5 Z"/></g>
</svg>

<svg xmlns="http://www.w3.org/2000/svg" width="166" height="192" style="shape-rendering:geometricPrecision;text-rendering:geometricPrecision;image-rendering:optimizeQuality;fill-rule:evenodd;clip-rule:evenodd"><path style="opacity:1" fill="#111010" d="M-.5-.5h166v119c-7.888 40.221-31.888 64.554-72 73h-22c-41.033-8.698-65.033-33.698-72-75V-.5z"/><path style="opacity:1" fill="#fdfdfd" d="M3.5 3.5h158c.167 38.335 0 76.668-.5 115-5.479 32.472-23.645 54.305-54.5 65.5-43.368 10.062-75.535-4.438-96.5-43.5-3.4-8-5.4-16.333-6-25-.5-37.332-.667-74.665-.5-112z"/><path style="opacity:1" fill="#696663" d="M119.5 50.5c-1.068.934-2.401 1.268-4 1 .284 1.915-.049 3.581-1 5v-6h5z"/><path style="opacity:1" fill="#1b1412" d="M119.5 50.5h-5v6a49.367 49.367 0 0 0-1 11c-1.89.204-3.39-.463-4.5-2-2.462 3.432-2.962 7.1-1.5 11-1.687 1.068-3.354.901-5-.5a36.005 36.005 0 0 1-3.5-4.5c-.837 3.795-.504 7.461 1 11A96.846 96.846 0 0 0 118.5 97c3.757 3.086 6.757 6.752 9 11 8.664 1 12.164-2.834 10.5-11.5a94.084 94.084 0 0 0-10-13c-2.61-6.904-1.61-13.237 3-19 .758-2.27.591-4.436-.5-6.5 4.571-.44 7.071 1.728 7.5 6.5a33.995 33.995 0 0 1 7.5-1.5c4.554-2.603 5.221-6.103 2-10.5l1-1c5.915 2.855 7.415 7.188 4.5 13a44.619 44.619 0 0 1-12.5 6.5c-4.555 2.913-5.721 6.746-3.5 11.5 2.396-6.277 6.896-9.11 13.5-8.5 3.624 2.161 4.791 5.328 3.5 9.5l-2 2c-.007-5.791-2.673-7.458-8-5a25.72 25.72 0 0 0-1.5 5.5c2.172 6.847 2.339 13.68.5 20.5-4.877 5.557-11.044 7.557-18.5 6l-7 20c1.394 6.57 5.227 11.237 11.5 14 .667 1.667.667 3.333 0 5-5.904 4.813-10.071 10.813-12.5 18-1.853 1.26-3.686 1.26-5.5 0-1.313 7.812-5.813 12.479-13.5 14-.061-2.092-1.061-3.592-3-4.5a103.138 103.138 0 0 0 4.5-8.5 127.522 127.522 0 0 1 12-10c2.712-3.436 4.879-7.103 6.5-11-4.743-2.138-8.743-1.305-12 2.5-1.333.667-2.667.667-4 0 2.904-3.979 2.07-7.145-2.5-9.5-2.089-8.106-.589-15.606 4.5-22.5a109.776 109.776 0 0 0-20 5c-3.716 3.542-3.882 7.375-.5 11.5.667 2 .667 4 0 6-7.164 3.506-13.33 8.339-18.5 14.5-1.547.333-2.88-.167-4-1.5-2.983 7.159-8.316 10.159-16 9v-3c-1.175.219-2.175-.114-3-1 4.217-7.949 10.884-12.115 20-12.5 5.22-1.857 8.053-5.357 8.5-10.5l-6-8a270.58 270.58 0 0 1-6.5-.5c-3.973-3.301-3.14-5.135 2.5-5.5.538-4.588 2.704-8.088 6.5-10.5h22a22.574 22.574 0 0 0 8-4c-10.726-2.685-19.393-8.352-26-17a127.508 127.508 0 0 1-24-10.5c-4.127 3.785-7.46 8.118-10 13-1.189.929-2.522 1.262-4 1 1.421 4.088 1.255 8.088-.5 12-1.88 3.254-4.047 3.588-6.5 1-1.962 1.354-2.962.687-3-2a47.085 47.085 0 0 1 4.5-17L41.5 75a12.869 12.869 0 0 1 6-1.5 28.96 28.96 0 0 0 9 .5c-6.791-10.875-14.124-11.208-22-1-1.399.595-2.732.428-4-.5-1.318 7.99-5.985 11.99-14 12v-3a4.932 4.932 0 0 1-3-.5 129.126 129.126 0 0 1 12-15 133.035 133.035 0 0 1 21-8c2.471-.706 4.805-.373 7 1 4.41 3.62 8.91 7.12 13.5 10.5A86.051 86.051 0 0 1 87.5 52c3.927-3.357 6.094-7.524 6.5-12.5-2.452 3.32-5.618 5.82-9.5 7.5a60.727 60.727 0 0 0-3.5 6.5c-1.171 1.393-2.671 2.227-4.5 2.5-1.774 4.147-4.774 6.147-9 6-3.226-3.967-2.56-5.467 2-4.5 1.41-.368 2.41-1.201 3-2.5-1.857-1.182-2.857-2.849-3-5A794.072 794.072 0 0 0 74 30.5a1577.902 1577.902 0 0 0-33.5-17c5.048-.765 10.048-.265 15 1.5A397.793 397.793 0 0 1 78 24.5c.767-4.058.6-8.058-.5-12 4.049-.846 6.882.82 8.5 5a46.001 46.001 0 0 0 5.5-6c2.256.92 3.256 2.588 3 5 4.313-.122 8.48.544 12.5 2 8.769-2.295 9.603-.795 2.5 4.5 3.497 1.41 6.164 3.744 8 7a22.956 22.956 0 0 0 5 2c-1.582 2.085-3.582 3.585-6 4.5a55.582 55.582 0 0 1 1.5 9c.273 1.829 1.107 3.329 2.5 4.5-.228.399-.562.565-1 .5z"/><path style="opacity:1" fill="#c82f22" d="M151.5 56.5c2.834 3.383 2.167 6.216-2 8.5l-12 6c-3.961 4.798-3.961 9.631 0 14.5a31.406 31.406 0 0 0 3.5-7c2.763-2.47 5.93-3.303 9.5-2.5 2.699 2.543 2.699 3.21 0 2-3.456-1.123-6.29-.29-8.5 2.5a48.015 48.015 0 0 0 1.5 19c-1.65 8.989-6.983 12.823-16 11.5-1.196-.654-1.196-1.154 0-1.5 7.849 1.736 12.183-1.431 13-9.5-1.812-6.498-5.312-11.998-10.5-16.5a18.09 18.09 0 0 1-2.5-6.5 417.782 417.782 0 0 1 6.5-17.5c1.741 2.041 1.908 4.208.5 6.5 5.181.115 10.181-.885 15-3 1.516-1.897 2.183-4.064 2-6.5z"/><path style="opacity:1" fill="#d03023" d="M46.5 59.5a18.436 18.436 0 0 1 6 .5 195.3 195.3 0 0 0 13 10.5c.42 1.826.42 3.826 0 6-1.7.16-3.366-.007-5-.5l-9-11c-8.15-2.613-14.316-.113-18.5 7.5-1.133-1.711-2.633-2.211-4.5-1.5-.42 4.505-2.42 8.172-6 11-1.333.667-2.667.667-4 0 .457-.414.79-.914 1-1.5-1.311-.757-1.811-1.757-1.5-3A85.378 85.378 0 0 1 28.5 66a189.792 189.792 0 0 0 18-6.5z"/><path style="opacity:1" fill="#a82c1f" d="M80.5 49.5c-.135 2.872-1.469 4.372-4 4.5a32.614 32.614 0 0 1 4-4.5z"/><path style="opacity:1" fill="#cd3022" d="M57.5 19.5c7.133.945 13.8 3.112 20 6.5-.498 1.158-1.332 1.991-2.5 2.5a143.842 143.842 0 0 1-17.5-9z"/><path style="opacity:1" fill="#c22f21" d="M57.5 19.5a22.717 22.717 0 0 1-10-4.5 224.31 224.31 0 0 1 8 2c.88.708 1.547 1.542 2 2.5z"/><path style="opacity:1" fill="#d43023" d="M80.5 49.5c.085-1.495-.582-2.495-2-3-2.043 1.08-3.376 2.746-4 5-.825.886-1.825 1.219-3 1a70.759 70.759 0 0 1 6.5-25c4-5.333 8.667-10 14-14 .212 2.831.379 5.498.5 8 1.192-2.183 3.025-3.516 5.5-4 3.523 2.171 7.357 3.338 11.5 3.5a7.253 7.253 0 0 0-2 2.5 163.7 163.7 0 0 1 12 9.5c-2.757.782-5.257.282-7.5-1.5a106.688 106.688 0 0 0 4 8 55.582 55.582 0 0 0 1.5 9c-.502 1.021-1.168 1.188-2 .5a14.743 14.743 0 0 1-3-4.5l-1 1.5c2.546 6.2 2.212 12.366-1 18.5a58.42 58.42 0 0 1-3-7c-.946 1.575-.946 3.242 0 5-1.337 4.005-2.67 8.005-4 12-1.456-2.786-2.456-5.786-3-9-5.621 7.306-5.288 14.306 1 21a118.098 118.098 0 0 0 18 13.5c3.481 2.766 4.981 6.266 4.5 10.5a176.306 176.306 0 0 0-8.5 22c.783 6.403 4.116 10.903 10 13.5 1.304.804 1.971 1.971 2 3.5a157.71 157.71 0 0 1-9.5 12 32.5 32.5 0 0 0-3 7c-1.722.462-3.555.628-5.5.5-.466 5.969-3.466 10.136-9 12.5-1.211-.774-1.211-1.607 0-2.5a6.802 6.802 0 0 1-3-1.5l3.5-7c8.107-4.938 14.274-11.604 18.5-20a4.933 4.933 0 0 0-1-2.5c-3.973-1.499-7.973-1.666-12-.5l-1.5 3-1-5c-4.208-3.725-5.542-8.391-4-14a311.219 311.219 0 0 0 6.5-15.5c-.295-2.923-1.629-5.257-4-7-10.702-2.6-20.202-7.434-28.5-14.5-1.368-1.493-1.535-2.993-.5-4.5a50.35 50.35 0 0 1-11-2A66.573 66.573 0 0 0 47 80.5c-1.71-.06-3.044.606-4 2-3.444 4.777-7.444 8.777-12 12-.09 2.296.076 4.63.5 7 .344 2.972-.656 5.306-3 7-.925-2.455-2.258-3.622-4-3.5A49.076 49.076 0 0 1 29 89.5 436.621 436.621 0 0 1 43.5 76a16.228 16.228 0 0 1 3.5-1.5c6.456 2.13 12.956 3.13 19.5 3 3.62-10.126 10.288-17.626 20-22.5 5.267-4.373 8.6-9.873 10-16.5-.116-2.899-1.283-5.232-3.5-7l-1.5.5c1.687 1.913 2.187 4.08 1.5 6.5-2.464 3.298-5.63 5.632-9.5 7a171.62 171.62 0 0 1-3 4z"/><path style="opacity:1" fill="#190b06" d="M79.5 27.5c4.828-.115 6.16 2.052 4 6.5-4.93.427-6.263-1.74-4-6.5z"/><path style="opacity:1" fill="#bb2e21" d="M79.5 13.5c5.262 2.106 5.762 4.773 1.5 8a18.982 18.982 0 0 1-1.5-8z"/><path style="opacity:1" fill="#d13023" d="M98.5 109.5c4.245.506 6.079 2.84 5.5 7a246.254 246.254 0 0 0-23.5 8.5c-1.219 1.438-1.885 3.105-2 5a112.75 112.75 0 0 1 3.5 10.5c-6.663 3.76-12.496 8.593-17.5 14.5-1.535-.661-3.202-.994-5-1-3.934 8.858-8.934 10.525-15 5 1.727-3.393 4.394-5.726 8-7 8.154-.493 14.654-3.993 19.5-10.5-.174-3.905-1.84-7.239-5-10-1.009-1.525-1.509-3.192-1.5-5-2.641.763-5.308.93-8 .5 3.453-1.728 5.286-4.562 5.5-8.5 2.01-3.06 4.843-4.726 8.5-5a65.788 65.788 0 0 0 19 .5c3.184-.754 5.851-2.254 8-4.5z"/><path style="opacity:1" fill="#fdfdfd" d="M-.5 116.5c6.967 41.302 30.967 66.302 72 75h-72v-75zM165.5 118.5v73h-72c40.112-8.446 64.112-32.779 72-73z"/></svg>
